report_00007_2020-12-11T15:55:29.892Z/metrics/comparison/line/3_vs_4.svg

<svg width="640" height="500" xmlns="http://www.w3.org/2000/svg" xmlns:xlink="http://www.w3.org/1999/xlink"><path fill="#fff" d="M0 0h640v500H0z"/><defs><path id="d" stroke-width=".222" stroke="currentColor" d="M-1-1h2v2h-2z"/><path id="b" stroke-width=".222" stroke="currentColor" d="M0-1.33l-1.33 2h2.66z"/><path id="f" stroke-width=".222" stroke="currentColor" d="M0 1.33L1.265.411.782-1.067l-1.564-.009-.483 1.487z"/><use xlink:href="#b" id="c" stroke="currentColor" transform="rotate(180)"/><use xlink:href="#d" id="e" stroke="currentColor" transform="rotate(45)"/><circle id="a" stroke-width=".222" stroke="currentColor" cx="0" cy="0" r="1"/></defs><g fill="none" color="#000" stroke="currentColor"><path stroke="#000" d="M70.5 429.5h9m535.5 0h-9"/><text transform="translate(62.2 433.4)" stroke="none" fill="#000" font-family="Arial" font-size="12" text-anchor="end"><tspan>2000</tspan></text></g><g fill="none" color="#000" stroke="currentColor"><path stroke="#000" d="M70.5 384.8h9m535.5 0h-9"/><text transform="translate(62.2 388.7)" stroke="none" fill="#000" font-family="Arial" font-size="12" text-anchor="end"><tspan>3000</tspan></text></g><g fill="none" color="#000" stroke="currentColor"><path stroke="#000" d="M70.5 340h9m535.5 0h-9"/><text transform="translate(62.2 343.9)" stroke="none" fill="#000" font-family="Arial" font-size="12" text-anchor="end"><tspan>4000</tspan></text></g><g fill="none" color="#000" stroke="currentColor"><path stroke="#000" d="M70.5 295.2h9m535.5 0h-9"/><text transform="translate(62.2 299.1)" stroke="none" fill="#000" font-family="Arial" font-size="12" text-anchor="end"><tspan>5000</tspan></text></g><g fill="none" color="#000" stroke="currentColor"><path stroke="#000" d="M70.5 250.5h9m535.5 0h-9"/><text transform="translate(62.2 254.4)" stroke="none" fill="#000" font-family="Arial" font-size="12" text-anchor="end"><tspan>6000</tspan></text></g><g fill="none" color="#000" stroke="currentColor"><path stroke="#000" d="M70.5 205.7h9m535.5 0h-9"/><text transform="translate(62.2 209.6)" stroke="none" fill="#000" font-family="Arial" font-size="12" text-anchor="end"><tspan>7000</tspan></text></g><g fill="none" color="#000" stroke="currentColor"><path stroke="#000" d="M70.5 160.9h9m535.5 0h-9"/><text transform="translate(62.2 164.8)" stroke="none" fill="#000" font-family="Arial" font-size="12" text-anchor="end"><tspan>8000</tspan></text></g><g fill="none" color="#000" stroke="currentColor"><path stroke="#000" d="M70.5 116.2h9m535.5 0h-9"/><text transform="translate(62.2 120.1)" stroke="none" fill="#000" font-family="Arial" font-size="12" text-anchor="end"><tspan>9000</tspan></text></g><g fill="none" color="#000" stroke="currentColor"><path stroke="#000" d="M70.5 71.4h9m535.5 0h-9"/><text transform="translate(62.2 75.3)" stroke="none" fill="#000" font-family="Arial" font-size="12" text-anchor="end"><tspan>10000</tspan></text></g><g fill="none" color="#000" stroke="currentColor"><path stroke="#000" d="M70.5 26.6h9m535.5 0h-9"/><text transform="translate(62.2 30.5)" stroke="none" fill="#000" font-family="Arial" font-size="12" text-anchor="end"><tspan>11000</tspan></text></g><g fill="none" color="#000" stroke="currentColor"><path stroke="#000" d="M70.5 446v-9m0-418.9v9"/><text transform="translate(70.5 467.9)" stroke="none" fill="#000" font-family="Arial" font-size="12" text-anchor="middle"><tspan>0</tspan></text></g><g fill="none" color="#000" stroke="currentColor"><path stroke="#000" d="M125.5 446v-9m0-418.9v9"/><text transform="translate(125.5 467.9)" stroke="none" fill="#000" font-family="Arial" font-size="12" text-anchor="middle"><tspan>10</tspan></text></g><g fill="none" color="#000" stroke="currentColor"><path stroke="#000" d="M180.5 446v-9m0-418.9v9"/><text transform="translate(180.5 467.9)" stroke="none" fill="#000" font-family="Arial" font-size="12" text-anchor="middle"><tspan>20</tspan></text></g><g fill="none" color="#000" stroke="currentColor"><path stroke="#000" d="M235.5 446v-9m0-418.9v9"/><text transform="translate(235.5 467.9)" stroke="none" fill="#000" font-family="Arial" font-size="12" text-anchor="middle"><tspan>30</tspan></text></g><g fill="none" color="#000" stroke="currentColor"><path stroke="#000" d="M290.5 446v-9m0-418.9v9"/><text transform="translate(290.5 467.9)" stroke="none" fill="#000" font-family="Arial" font-size="12" text-anchor="middle"><tspan>40</tspan></text></g><g fill="none" color="#000" stroke="currentColor"><path stroke="#000" d="M345.5 446v-9m0-418.9v9"/><text transform="translate(345.5 467.9)" stroke="none" fill="#000" font-family="Arial" font-size="12" text-anchor="middle"><tspan>50</tspan></text></g><g fill="none" color="#000" stroke="currentColor"><path stroke="#000" d="M400.5 446v-9m0-418.9v9"/><text transform="translate(400.5 467.9)" stroke="none" fill="#000" font-family="Arial" font-size="12" text-anchor="middle"><tspan>60</tspan></text></g><g fill="none" color="#000" stroke="currentColor"><path stroke="#000" d="M455.5 446v-9m0-418.9v9"/><text transform="translate(455.5 467.9)" stroke="none" fill="#000" font-family="Arial" font-size="12" text-anchor="middle"><tspan>70</tspan></text></g><g fill="none" color="#000" stroke="currentColor"><path stroke="#000" d="M510.5 446v-9m0-418.9v9"/><text transform="translate(510.5 467.9)" stroke="none" fill="#000" font-family="Arial" font-size="12" text-anchor="middle"><tspan>80</tspan></text></g><g fill="none" color="#000" stroke="currentColor"><path stroke="#000" d="M565.5 446v-9m0-418.9v9"/><text transform="translate(565.5 467.9)" stroke="none" fill="#000" font-family="Arial" font-size="12" text-anchor="middle"><tspan>90</tspan></text></g><path stroke="#000" d="M70.5 18.1V446H615V18.1H70.5z" fill="none" color="#000"/><text transform="translate(283.9 485.9)" stroke="none" fill="#000" font-family="Arial" font-size="12" text-anchor="end" color="#000"><tspan>pages+cached+nointeractive</tspan></text><path stroke="#9400D3" d="M292.2 482h42.2M70.5 27.6L76 29l5.5-2 5.5.9 5.5-.2 5.5 1 5.5-.2 5.5.3 5.5-.1 5.5-2.4 5.5 1.6 5.5-.1 5.5.7 5.5-.7 5.5.9 5.5.2 5.5-1.4 5.5 1.6 5.5-.1 5.5-.9 5.5.8h5.5l5.5.1 5.5-.8 5.5 1 5.5-.1 5.5-.1 5.5.3 5.5-.5 5.5.1 5.5-1.3 5.5 1.1 5.5.2 5.5-.5 5.5.4 5.5.2 5.5-.5 5.5.1 5.5-.9 5.5 1 5.5.1 5.5-1.2 5.5 1.4 5.5-1.4 5.5 1.4 5.5-.3h16.5l5.5.1 5.5-.1h5.5l5.5-.1 5.5.8 5.5-.8 5.5.1 5.5-.9 5.5.1 5.5 1.1 5.5-.1 5.5-.2 5.5-.8 5.5.8 5.5.8 5.5-.2 5.5-.2 5.5-.4 5.5.5 5.5-1.1 5.5.5 5.5-1.1 5.5.2 5.5 1 5.5-.4 5.5 1 5.5-.6 5.5.1 5.5.2 5.5.1h5.5l5.5-.6 5.5.6 5.5-1.2 5.5.8 5.5.4 5.5-2 5.5 1.6 5.5-.5 5.5.6 5.5-.4 5.5.6 5.5-.6 5.5.3 5.5.1 5.5.2 5.5-1.1 5.5 1.3 5.5-.4h5.5l5.5-.2" fill="none" color="#000"/><text transform="translate(558.5 485.9)" stroke="none" fill="#000" font-family="Arial" font-size="12" text-anchor="end" color="#000"><tspan>pages+cached+noadtech</tspan></text><path stroke="#009E73" d="M566.8 482H609M70.5 427.6l5.5 9.9h5.5l5.5.2 5.5-.2 5.5-10.4 5.5.4 5.5 10.2 5.5-.1 5.5-10.3 5.5 10.2 5.5-10.2 5.5 10.1 5.5-10.1h5.5l5.5-.1 5.5 10.2 5.5-10.1 5.5 10.3 5.5-10.5 5.5 10.6 5.5-7 5.5-3.5 5.5.3 5.5 10 5.5-10.3 5.5 3.4 5.5 6.9 5.5.1 5.5-10.3 5.5.3 5.5 10.1 5.5.1 5.5-10.5 5.5 10.5 5.5-10.5 5.5-.2 5.5 10.6 5.5-10.3 5.5-.1 5.5.1 5.5 10.2 5.5-10.3 5.5 3.3 5.5-3.3 5.5 10.3 5.5-10.4 5.5 10.3 5.5.1 5.5-10.3 5.5 10.2 5.5-10.2 5.5 3.3 5.5 7 5.5.1 5.5-10.5 5.5 10.3 5.5-6.8h5.5l5.5 6.7 5.5.2 5.5-7 5.5-3.2 5.5 10.1h5.5l5.5-10.4 5.5.2 5.5 10.4h5.5l5.5-7 5.5-3.1 5.5 10.1 5.5-10.4 5.5-.1 5.5 10.4 5.5-7 5.5-3.4 5.5 10.4 5.5-10.3h22l5.5.2 5.5-.2 5.5 3.3 5.5 7 5.5-10.4 5.5.1 5.5 3.6 5.5-3.7 5.5 10.3 5.5-10.2 5.5 10.3 5.5-6.9 5.5 6.6 5.5-9.8 5.5 10 5.5-10.2 5.5-.1" fill="none" color="#000"/><g fill="none" color="#000" stroke="currentColor"><path stroke="#000" d="M70.5 18.1V446H615V18.1H70.5z"/></g></svg>

<?xml version="1.0" encoding="utf-8"  standalone="no"?>
<svg 
 width="640" height="500"
 viewBox="0 0 640 500"
 xmlns="http://www.w3.org/2000/svg"
 xmlns:xlink="http://www.w3.org/1999/xlink"
>

<title>Gnuplot</title>
<desc>Produced by GNUPLOT 5.4 patchlevel 0 </desc>

<g id="gnuplot_canvas">

<rect x="0" y="0" width="640" height="500" fill="#ffffff"/>
<defs>

	<circle id='gpDot' r='0.5' stroke-width='0.5' stroke='currentColor'/>
	<path id='gpPt0' stroke-width='0.222' stroke='currentColor' d='M-1,0 h2 M0,-1 v2'/>
	<path id='gpPt1' stroke-width='0.222' stroke='currentColor' d='M-1,-1 L1,1 M1,-1 L-1,1'/>
	<path id='gpPt2' stroke-width='0.222' stroke='currentColor' d='M-1,0 L1,0 M0,-1 L0,1 M-1,-1 L1,1 M-1,1 L1,-1'/>
	<rect id='gpPt3' stroke-width='0.222' stroke='currentColor' x='-1' y='-1' width='2' height='2'/>
	<rect id='gpPt4' stroke-width='0.222' stroke='currentColor' fill='currentColor' x='-1' y='-1' width='2' height='2'/>
	<circle id='gpPt5' stroke-width='0.222' stroke='currentColor' cx='0' cy='0' r='1'/>
	<use xlink:href='#gpPt5' id='gpPt6' fill='currentColor' stroke='none'/>
	<path id='gpPt7' stroke-width='0.222' stroke='currentColor' d='M0,-1.33 L-1.33,0.67 L1.33,0.67 z'/>
	<use xlink:href='#gpPt7' id='gpPt8' fill='currentColor' stroke='none'/>
	<use xlink:href='#gpPt7' id='gpPt9' stroke='currentColor' transform='rotate(180)'/>
	<use xlink:href='#gpPt9' id='gpPt10' fill='currentColor' stroke='none'/>
	<use xlink:href='#gpPt3' id='gpPt11' stroke='currentColor' transform='rotate(45)'/>
	<use xlink:href='#gpPt11' id='gpPt12' fill='currentColor' stroke='none'/>
	<path id='gpPt13' stroke-width='0.222' stroke='currentColor' d='M0,1.330 L1.265,0.411 L0.782,-1.067 L-0.782,-1.076 L-1.265,0.411 z'/>
	<use xlink:href='#gpPt13' id='gpPt14' fill='currentColor' stroke='none'/>
	<filter id='textbox' filterUnits='objectBoundingBox' x='0' y='0' height='1' width='1'>
	  <feFlood flood-color='#FFFFFF' flood-opacity='1' result='bgnd'/>
	  <feComposite in='SourceGraphic' in2='bgnd' operator='atop'/>
	</filter>
	<filter id='greybox' filterUnits='objectBoundingBox' x='0' y='0' height='1' width='1'>
	  <feFlood flood-color='lightgrey' flood-opacity='1' result='grey'/>
	  <feComposite in='SourceGraphic' in2='grey' operator='atop'/>
	</filter>
</defs>
<g fill="none" color="#FFFFFF" stroke="black" stroke-width="1.00" stroke-linecap="butt" stroke-linejoin="miter">
</g>
<g fill="none" color="black" stroke="currentColor" stroke-width="1.00" stroke-linecap="butt" stroke-linejoin="miter">
	<path stroke='black'  d='M70.5,429.5 L79.5,429.5 M615.0,429.5 L606.0,429.5  '/>	<g transform="translate(62.2,433.4)" stroke="none" fill="black" font-family="Arial" font-size="12.00"  text-anchor="end">
		<text><tspan font-family="Arial" > 2000</tspan></text>
	</g>
</g>
<g fill="none" color="black" stroke="currentColor" stroke-width="1.00" stroke-linecap="butt" stroke-linejoin="miter">
	<path stroke='black'  d='M70.5,384.8 L79.5,384.8 M615.0,384.8 L606.0,384.8  '/>	<g transform="translate(62.2,388.7)" stroke="none" fill="black" font-family="Arial" font-size="12.00"  text-anchor="end">
		<text><tspan font-family="Arial" > 3000</tspan></text>
	</g>
</g>
<g fill="none" color="black" stroke="currentColor" stroke-width="1.00" stroke-linecap="butt" stroke-linejoin="miter">
	<path stroke='black'  d='M70.5,340.0 L79.5,340.0 M615.0,340.0 L606.0,340.0  '/>	<g transform="translate(62.2,343.9)" stroke="none" fill="black" font-family="Arial" font-size="12.00"  text-anchor="end">
		<text><tspan font-family="Arial" > 4000</tspan></text>
	</g>
</g>
<g fill="none" color="black" stroke="currentColor" stroke-width="1.00" stroke-linecap="butt" stroke-linejoin="miter">
	<path stroke='black'  d='M70.5,295.2 L79.5,295.2 M615.0,295.2 L606.0,295.2  '/>	<g transform="translate(62.2,299.1)" stroke="none" fill="black" font-family="Arial" font-size="12.00"  text-anchor="end">
		<text><tspan font-family="Arial" > 5000</tspan></text>
	</g>
</g>
<g fill="none" color="black" stroke="currentColor" stroke-width="1.00" stroke-linecap="butt" stroke-linejoin="miter">
	<path stroke='black'  d='M70.5,250.5 L79.5,250.5 M615.0,250.5 L606.0,250.5  '/>	<g transform="translate(62.2,254.4)" stroke="none" fill="black" font-family="Arial" font-size="12.00"  text-anchor="end">
		<text><tspan font-family="Arial" > 6000</tspan></text>
	</g>
</g>
<g fill="none" color="black" stroke="currentColor" stroke-width="1.00" stroke-linecap="butt" stroke-linejoin="miter">
	<path stroke='black'  d='M70.5,205.7 L79.5,205.7 M615.0,205.7 L606.0,205.7  '/>	<g transform="translate(62.2,209.6)" stroke="none" fill="black" font-family="Arial" font-size="12.00"  text-anchor="end">
		<text><tspan font-family="Arial" > 7000</tspan></text>
	</g>
</g>
<g fill="none" color="black" stroke="currentColor" stroke-width="1.00" stroke-linecap="butt" stroke-linejoin="miter">
	<path stroke='black'  d='M70.5,160.9 L79.5,160.9 M615.0,160.9 L606.0,160.9  '/>	<g transform="translate(62.2,164.8)" stroke="none" fill="black" font-family="Arial" font-size="12.00"  text-anchor="end">
		<text><tspan font-family="Arial" > 8000</tspan></text>
	</g>
</g>
<g fill="none" color="black" stroke="currentColor" stroke-width="1.00" stroke-linecap="butt" stroke-linejoin="miter">
	<path stroke='black'  d='M70.5,116.2 L79.5,116.2 M615.0,116.2 L606.0,116.2  '/>	<g transform="translate(62.2,120.1)" stroke="none" fill="black" font-family="Arial" font-size="12.00"  text-anchor="end">
		<text><tspan font-family="Arial" > 9000</tspan></text>
	</g>
</g>
<g fill="none" color="black" stroke="currentColor" stroke-width="1.00" stroke-linecap="butt" stroke-linejoin="miter">
	<path stroke='black'  d='M70.5,71.4 L79.5,71.4 M615.0,71.4 L606.0,71.4  '/>	<g transform="translate(62.2,75.3)" stroke="none" fill="black" font-family="Arial" font-size="12.00"  text-anchor="end">
		<text><tspan font-family="Arial" > 10000</tspan></text>
	</g>
</g>
<g fill="none" color="black" stroke="currentColor" stroke-width="1.00" stroke-linecap="butt" stroke-linejoin="miter">
	<path stroke='black'  d='M70.5,26.6 L79.5,26.6 M615.0,26.6 L606.0,26.6  '/>	<g transform="translate(62.2,30.5)" stroke="none" fill="black" font-family="Arial" font-size="12.00"  text-anchor="end">
		<text><tspan font-family="Arial" > 11000</tspan></text>
	</g>
</g>
<g fill="none" color="black" stroke="currentColor" stroke-width="1.00" stroke-linecap="butt" stroke-linejoin="miter">
	<path stroke='black'  d='M70.5,446.0 L70.5,437.0 M70.5,18.1 L70.5,27.1  '/>	<g transform="translate(70.5,467.9)" stroke="none" fill="black" font-family="Arial" font-size="12.00"  text-anchor="middle">
		<text><tspan font-family="Arial" > 0</tspan></text>
	</g>
</g>
<g fill="none" color="black" stroke="currentColor" stroke-width="1.00" stroke-linecap="butt" stroke-linejoin="miter">
	<path stroke='black'  d='M125.5,446.0 L125.5,437.0 M125.5,18.1 L125.5,27.1  '/>	<g transform="translate(125.5,467.9)" stroke="none" fill="black" font-family="Arial" font-size="12.00"  text-anchor="middle">
		<text><tspan font-family="Arial" > 10</tspan></text>
	</g>
</g>
<g fill="none" color="black" stroke="currentColor" stroke-width="1.00" stroke-linecap="butt" stroke-linejoin="miter">
	<path stroke='black'  d='M180.5,446.0 L180.5,437.0 M180.5,18.1 L180.5,27.1  '/>	<g transform="translate(180.5,467.9)" stroke="none" fill="black" font-family="Arial" font-size="12.00"  text-anchor="middle">
		<text><tspan font-family="Arial" > 20</tspan></text>
	</g>
</g>
<g fill="none" color="black" stroke="currentColor" stroke-width="1.00" stroke-linecap="butt" stroke-linejoin="miter">
	<path stroke='black'  d='M235.5,446.0 L235.5,437.0 M235.5,18.1 L235.5,27.1  '/>	<g transform="translate(235.5,467.9)" stroke="none" fill="black" font-family="Arial" font-size="12.00"  text-anchor="middle">
		<text><tspan font-family="Arial" > 30</tspan></text>
	</g>
</g>
<g fill="none" color="black" stroke="currentColor" stroke-width="1.00" stroke-linecap="butt" stroke-linejoin="miter">
	<path stroke='black'  d='M290.5,446.0 L290.5,437.0 M290.5,18.1 L290.5,27.1  '/>	<g transform="translate(290.5,467.9)" stroke="none" fill="black" font-family="Arial" font-size="12.00"  text-anchor="middle">
		<text><tspan font-family="Arial" > 40</tspan></text>
	</g>
</g>
<g fill="none" color="black" stroke="currentColor" stroke-width="1.00" stroke-linecap="butt" stroke-linejoin="miter">
	<path stroke='black'  d='M345.5,446.0 L345.5,437.0 M345.5,18.1 L345.5,27.1  '/>	<g transform="translate(345.5,467.9)" stroke="none" fill="black" font-family="Arial" font-size="12.00"  text-anchor="middle">
		<text><tspan font-family="Arial" > 50</tspan></text>
	</g>
</g>
<g fill="none" color="black" stroke="currentColor" stroke-width="1.00" stroke-linecap="butt" stroke-linejoin="miter">
	<path stroke='black'  d='M400.5,446.0 L400.5,437.0 M400.5,18.1 L400.5,27.1  '/>	<g transform="translate(400.5,467.9)" stroke="none" fill="black" font-family="Arial" font-size="12.00"  text-anchor="middle">
		<text><tspan font-family="Arial" > 60</tspan></text>
	</g>
</g>
<g fill="none" color="black" stroke="currentColor" stroke-width="1.00" stroke-linecap="butt" stroke-linejoin="miter">
	<path stroke='black'  d='M455.5,446.0 L455.5,437.0 M455.5,18.1 L455.5,27.1  '/>	<g transform="translate(455.5,467.9)" stroke="none" fill="black" font-family="Arial" font-size="12.00"  text-anchor="middle">
		<text><tspan font-family="Arial" > 70</tspan></text>
	</g>
</g>
<g fill="none" color="black" stroke="currentColor" stroke-width="1.00" stroke-linecap="butt" stroke-linejoin="miter">
	<path stroke='black'  d='M510.5,446.0 L510.5,437.0 M510.5,18.1 L510.5,27.1  '/>	<g transform="translate(510.5,467.9)" stroke="none" fill="black" font-family="Arial" font-size="12.00"  text-anchor="middle">
		<text><tspan font-family="Arial" > 80</tspan></text>
	</g>
</g>
<g fill="none" color="black" stroke="currentColor" stroke-width="1.00" stroke-linecap="butt" stroke-linejoin="miter">
	<path stroke='black'  d='M565.5,446.0 L565.5,437.0 M565.5,18.1 L565.5,27.1  '/>	<g transform="translate(565.5,467.9)" stroke="none" fill="black" font-family="Arial" font-size="12.00"  text-anchor="middle">
		<text><tspan font-family="Arial" > 90</tspan></text>
	</g>
</g>
<g fill="none" color="black" stroke="currentColor" stroke-width="1.00" stroke-linecap="butt" stroke-linejoin="miter">
</g>
<g fill="none" color="black" stroke="currentColor" stroke-width="1.00" stroke-linecap="butt" stroke-linejoin="miter">
	<path stroke='black'  d='M70.5,18.1 L70.5,446.0 L615.0,446.0 L615.0,18.1 L70.5,18.1 Z  '/></g>
<g fill="none" color="black" stroke="currentColor" stroke-width="1.00" stroke-linecap="butt" stroke-linejoin="miter">
</g>
	<g id="gnuplot_plot_1" ><title>pages+cached+nointeractive</title>
<g fill="none" color="black" stroke="currentColor" stroke-width="1.00" stroke-linecap="butt" stroke-linejoin="miter">
	<g transform="translate(283.9,485.9)" stroke="none" fill="black" font-family="Arial" font-size="12.00"  text-anchor="end">
		<text><tspan font-family="Arial" >pages+cached+nointeractive</tspan></text>
	</g>
</g>
<g fill="none" color="black" stroke="currentColor" stroke-width="1.00" stroke-linecap="butt" stroke-linejoin="miter">
	<path stroke='rgb(148,   0, 211)'  d='M292.2,482.0 L334.4,482.0 M70.5,27.6 L76.0,29.0 L81.5,27.0 L87.0,27.9 L92.5,27.7 L98.0,28.7
		L103.5,28.5 L109.0,28.8 L114.5,28.7 L120.0,26.3 L125.5,27.9 L131.0,27.8 L136.5,28.5 L142.0,27.8
		L147.5,28.7 L153.0,28.9 L158.5,27.5 L164.0,29.1 L169.5,29.0 L175.0,28.1 L180.5,28.9 L186.0,28.9
		L191.5,29.0 L197.0,28.2 L202.5,29.2 L208.0,29.1 L213.5,29.0 L219.0,29.3 L224.5,28.8 L230.0,28.9
		L235.5,27.6 L241.0,28.7 L246.5,28.9 L252.0,28.4 L257.5,28.8 L263.0,29.0 L268.5,28.5 L274.0,28.6
		L279.5,27.7 L285.0,28.7 L290.5,28.8 L296.0,27.6 L301.5,29.0 L307.0,27.6 L312.5,29.0 L318.0,28.7
		L323.5,28.7 L329.0,28.7 L334.5,28.7 L340.0,28.8 L345.5,28.7 L351.0,28.7 L356.5,28.6 L362.0,29.4
		L367.5,28.6 L373.0,28.7 L378.5,27.8 L384.0,27.9 L389.5,29.0 L395.0,28.9 L400.5,28.7 L406.0,27.9
		L411.5,28.7 L417.0,29.5 L422.5,29.3 L428.0,29.1 L433.5,28.7 L439.0,29.2 L444.5,28.1 L450.0,28.6
		L455.5,27.5 L461.0,27.7 L466.5,28.7 L472.0,28.3 L477.5,29.3 L483.0,28.7 L488.5,28.8 L494.0,29.0
		L499.5,29.1 L505.0,29.1 L510.5,28.5 L516.0,29.1 L521.5,27.9 L527.0,28.7 L532.5,29.1 L538.0,27.1
		L543.5,28.7 L549.0,28.2 L554.5,28.8 L560.0,28.4 L565.5,29.0 L571.0,28.4 L576.5,28.7 L582.0,28.8
		L587.5,29.0 L593.0,27.9 L598.5,29.2 L604.0,28.8 L609.5,28.8 L615.0,28.6  '/></g>
	</g>
	<g id="gnuplot_plot_2" ><title>pages+cached+noadtech</title>
<g fill="none" color="black" stroke="currentColor" stroke-width="1.00" stroke-linecap="butt" stroke-linejoin="miter">
	<g transform="translate(558.5,485.9)" stroke="none" fill="black" font-family="Arial" font-size="12.00"  text-anchor="end">
		<text><tspan font-family="Arial" >pages+cached+noadtech</tspan></text>
	</g>
</g>
<g fill="none" color="black" stroke="currentColor" stroke-width="1.00" stroke-linecap="butt" stroke-linejoin="miter">
	<path stroke='rgb(  0, 158, 115)'  d='M566.8,482.0 L609.0,482.0 M70.5,427.6 L76.0,437.5 L81.5,437.5 L87.0,437.7 L92.5,437.5 L98.0,427.1
		L103.5,427.5 L109.0,437.7 L114.5,437.6 L120.0,427.3 L125.5,437.5 L131.0,427.3 L136.5,437.4 L142.0,427.3
		L147.5,427.3 L153.0,427.2 L158.5,437.4 L164.0,427.3 L169.5,437.6 L175.0,427.1 L180.5,437.7 L186.0,430.7
		L191.5,427.2 L197.0,427.5 L202.5,437.5 L208.0,427.2 L213.5,430.6 L219.0,437.5 L224.5,437.6 L230.0,427.3
		L235.5,427.6 L241.0,437.7 L246.5,437.8 L252.0,427.3 L257.5,437.8 L263.0,427.3 L268.5,427.1 L274.0,437.7
		L279.5,427.4 L285.0,427.3 L290.5,427.4 L296.0,437.6 L301.5,427.3 L307.0,430.6 L312.5,427.3 L318.0,437.6
		L323.5,427.2 L329.0,437.5 L334.5,437.6 L340.0,427.3 L345.5,437.5 L351.0,427.3 L356.5,430.6 L362.0,437.6
		L367.5,437.7 L373.0,427.2 L378.5,437.5 L384.0,430.7 L389.5,430.7 L395.0,437.4 L400.5,437.6 L406.0,430.6
		L411.5,427.4 L417.0,437.5 L422.5,437.5 L428.0,427.1 L433.5,427.3 L439.0,437.7 L444.5,437.7 L450.0,430.7
		L455.5,427.6 L461.0,437.7 L466.5,427.3 L472.0,427.2 L477.5,437.6 L483.0,430.6 L488.5,427.2 L494.0,437.6
		L499.5,427.3 L505.0,427.3 L510.5,427.3 L516.0,427.3 L521.5,427.3 L527.0,427.5 L532.5,427.3 L538.0,430.6
		L543.5,437.6 L549.0,427.2 L554.5,427.3 L560.0,430.9 L565.5,427.2 L571.0,437.5 L576.5,427.3 L582.0,437.6
		L587.5,430.7 L593.0,437.3 L598.5,427.5 L604.0,437.5 L609.5,427.3 L615.0,427.2  '/></g>
	</g>
<g fill="none" color="#FFFFFF" stroke="rgb(  0, 158, 115)" stroke-width="2.00" stroke-linecap="butt" stroke-linejoin="miter">
</g>
<g fill="none" color="black" stroke="currentColor" stroke-width="2.00" stroke-linecap="butt" stroke-linejoin="miter">
</g>
<g fill="none" color="black" stroke="black" stroke-width="1.00" stroke-linecap="butt" stroke-linejoin="miter">
</g>
<g fill="none" color="black" stroke="currentColor" stroke-width="1.00" stroke-linecap="butt" stroke-linejoin="miter">
	<path stroke='black'  d='M70.5,18.1 L70.5,446.0 L615.0,446.0 L615.0,18.1 L70.5,18.1 Z  '/></g>
<g fill="none" color="black" stroke="currentColor" stroke-width="1.00" stroke-linecap="butt" stroke-linejoin="miter">
</g>
</g>
</svg>
